ui/icon/svg/cube-sharp.svg

<svg viewBox="0 0 512 512" xmlns="http://www.w3.org/2000/svg"><path d="m48 170v196.92l192 113.08v-196zm224 310 192-113.08v-196.92l-192 114zm176-336-192-112-192 112 192 112z"/></svg>

<svg xmlns="http://www.w3.org/2000/svg" class="ionicon" viewBox="0 0 512 512"><title>Cube</title><path d="M48 170v196.92L240 480V284L48 170zM272 480l192-113.08V170L272 284zm176-122.36zM448 144L256 32 64 144l192 112 192-112z"/></svg>
